archcraft-icons-qogir/files/Qogir/32/apps/applications-accessories.svg

<svg width="32" height="32" version="1.1" viewBox="0 0 8.4665 8.4665" xmlns="http://www.w3.org/2000/svg">
 <rect x=".79373" y=".79373" width="6.879" height="6.879" rx=".39687" ry=".39687" fill="none" stroke="#1e48a6" stroke-linecap="round" stroke-linejoin="round" stroke-opacity=".74902" stroke-width=".52916" style="paint-order:markers stroke fill"/>
 <rect x=".79373" y=".79373" width="6.879" height="6.879" rx=".39687" ry=".39687" fill="#7091e3" stroke-width=".26458" style="paint-order:markers stroke fill"/>
 <path transform="scale(.26458)" d="m16.006 7a9.0017 8.9983 0 0 0-9.0059 9.0059 9.0017 8.9983 0 0 0 9.002 8.9941 9.0017 8.9983 0 0 0 8.998-8.9941 9.0017 8.9983 0 0 0-8.9941-9.0059zm-0.001953 2a7.0013 6.9987 0 0 1 6.9961 7.0039 7.0013 6.9987 0 0 1-6.998 6.9961 7.0013 6.9987 0 0 1-7.002-6.9961 7.0013 6.9987 0 0 1 7.0039-7.0039z" opacity=".15" stroke-width="3.7796" style="paint-order:stroke markers fill"/>
 <path d="m3.8943 1.0583v0.73724a1.0165 1.0165 0 0 0-0.67792 0.95788 1.0165 1.0165 0 0 0 0.51727 0.88456l-0.48927 1.8264h-0.36662v0.33996h0.27597l-0.27397 1.0212 0.19331 0.58259 0.43061-1.6045h1.4585l0.42928 1.6045 0.19398-0.58259-0.2733-1.0219h0.27663v-0.33862h-0.36795l-0.48927-1.8264a1.0165 1.0165 0 0 0 0.5186-0.88522 1.0165 1.0165 0 0 0-0.67792-0.95788v-0.73724zm0.33929 1.3558a0.33862 0.33862 0 0 1 0.33862 0.33862 0.33862 0.33862 0 0 1-0.33862 0.33929 0.33862 0.33862 0 0 1-0.33929-0.33929 0.33862 0.33862 0 0 1 0.33929-0.33862zm-0.17998 1.3385a1.0165 1.0165 0 0 0 0.17998 0.017332 1.0165 1.0165 0 0 0 0.17931-0.015998l0.45794 1.7105h-1.2765z" fill="#fff"/>
</svg>

<svg xmlns="http://www.w3.org/2000/svg" width="32" height="32" viewBox="0 0 8.466 8.466"><rect width="6.879" height="6.879" x=".794" y=".794" fill="none" stroke="#1e48a6" stroke-linecap="round" stroke-linejoin="round" stroke-opacity=".749" stroke-width=".529" rx=".397" ry=".397" style="paint-order:markers stroke fill"/><rect width="6.879" height="6.879" x=".794" y=".794" fill="#7091e3" rx=".397" ry=".397" style="paint-order:markers stroke fill"/><path d="M16.006 7A9.002 8.998 0 0 0 7 16.006 9.002 8.998 0 0 0 16.002 25 9.002 8.998 0 0 0 25 16.006 9.002 8.998 0 0 0 16.006 7zm-.002 2A7.001 6.999 0 0 1 23 16.004 7.001 6.999 0 0 1 16.002 23 7.001 6.999 0 0 1 9 16.004 7.001 6.999 0 0 1 16.004 9z" opacity=".15" style="paint-order:stroke markers fill" transform="scale(.26458)"/><path fill="#fff" d="M3.894 1.058v.738a1.016 1.016 0 0 0-.678.957 1.016 1.016 0 0 0 .518.885l-.49 1.826h-.366v.34h.276L2.88 6.826l.193.582.43-1.604h1.46l.428 1.604.194-.582-.273-1.022h.277v-.339H5.22l-.49-1.826a1.016 1.016 0 0 0 .52-.886 1.016 1.016 0 0 0-.679-.957v-.738zm.34 1.356a.339.339 0 0 1 .338.339.339.339 0 0 1-.338.339.339.339 0 0 1-.34-.34.339.339 0 0 1 .34-.338zm-.18 1.339a1.016 1.016 0 0 0 .18.017 1.016 1.016 0 0 0 .179-.016l.458 1.71H3.594z"/></svg>
